X: 4
T: Nongfu ge
L: 1/8
M: 6/8
K: Bb
d' d' d' d' d' d' [I:setbarnb 1]| 
c'2c'a2z | 
d' d' d' b> d' b/ a/ | 
g2gd3 | 
gg2b> g b | 
gg2d2d | 
c'> d' d' b> d' b/ a/ | 
g2dg2a | 
c'3d'3 | 
g'3-g'> d' b/ a/ | 
g3-g2b/ a/ | 
gd2g3 |]

@@@ Tune index: 8672
